www/images/normal@2x.svg

<svg fill="none" height="54" viewBox="0 0 54 54" width="54" xmlns="http://www.w3.org/2000/svg"><path d="m33.7662 21.7026h-.0918c-.3487-.0006-.694.0692-1.0152.2052-.0364-.4421-.1859-.8673-.4341-1.2349s-.5868-.6653-.9832-.8643-.8373-.2927-1.2804-.2722c-.443.0206-.8734.1547-1.2497.3896-.3166-.543-.8201-.952-1.4164-1.1508-.5962-.1987-1.2445-.1736-1.8236.0708v-3.5586c0-.6925-.275-1.3566-.7647-1.8462-.4896-.4896-1.1537-.7647-1.8462-.7647-.6924 0-1.3565.2751-1.8461.7647-.4897.4896-.7648 1.1537-.7648 1.8462v9.6174l-.1134-.1728-.054-.0756c-.2193-.268-.4907-.4887-.7978-.6487-.3072-.1601-.6435-.2561-.9889-.2824-.3453-.0262-.6923.0179-1.0201.1297-.3277.1117-.6294.2888-.8868.5206-.474.4301-.7704 1.0217-.8314 1.6588-.0609.6372.1181 1.2742.502 1.7864l5.778 8.9694v3.7098c0 .2148.0854.4208.2373.5727s.3579.2373.5727.2373h10.7136c.2149 0 .4209-.0854.5728-.2373s.2372-.3579.2372-.5727v-3.6882l2.0574-2.8944c.0981-.1371.1509-.3013.1512-.4698v-9.1476c-.0042-.6904-.2815-1.351-.7712-1.8376-.4897-.4867-1.152-.7598-1.8424-.7598zm.9882 11.4858-2.0574 2.8944c-.098.137-.1509.3013-.1512.4698v3.1482h-9.0882v-3.1482c-.0004-.1552-.0453-.307-.1296-.4374l-5.94-9.18-.0432-.0594c-.1459-.1884-.2152-.4248-.1942-.6622.021-.2373.1309-.4579.3076-.6176.0922-.0824.1996-.1459.3163-.1867s.2402-.0582.3636-.0512c.1234.0071.2442.0384.3555.0922.1113.0537.2109.129.293.2213l1.6038 2.4084c.0948.1467.2345.2589.3982.3197.1637.0609.3427.0672.5103.018s.3149-.1512.4197-.2909c.1049-.1397.1618-.3095.1622-.4842v-12.3552c0-.2628.1044-.5149.2903-.7007.1858-.1858.4378-.2902.7006-.2902s.5149.1044.7007.2902.2902.4379.2902.7007v9.8334c0 .2148.0854.4208.2373.5727s.3579.2373.5727.2373c.2149 0 .4209-.0854.5728-.2373s.2372-.3579.2372-.5727v-3.8718c0-.2628.1044-.5149.2903-.7007.1858-.1858.4378-.2902.7006-.2902s.5149.1044.7007.2902.2902.4379.2902.7007v3.8718c0 .2148.0854.4208.2373.5727s.3579.2373.5727.2373c.2149 0 .4209-.0854.5728-.2373s.2372-.3579.2372-.5727v-2.9808c0-.2628.1044-.5149.2903-.7007.1858-.1858.4378-.2902.7006-.2902s.5149.1044.7007.2902.2902.4379.2902.7007v4.2066c0 .2148.0854.4208.2373.5727s.3579.2373.5727.2373c.2149 0 .4209-.0854.5728-.2373s.2372-.3579.2372-.5727v-.918s0 0 0-.0378v-1.0908c0-.2621.1042-.5135.2895-.6988s.4367-.2894.6987-.2894h.0918c.2621 0 .5135.1041.6988.2894s.2894.4367.2894.6988z" fill="#000"/><path d="m34.7544 33.1884-2.0574 2.8944c-.098.137-.1509.3013-.1512.4698v3.1482h-9.0882v-3.1482c-.0004-.1552-.0453-.307-.1296-.4374l-5.94-9.18-.0432-.0594c-.1459-.1884-.2152-.4248-.1942-.6622.021-.2373.1309-.4579.3076-.6176.0922-.0824.1996-.1459.3163-.1867s.2402-.0582.3636-.0512c.1234.0071.2442.0384.3555.0922.1113.0537.2109.129.293.2213l1.6038 2.4084c.0948.1467.2345.2589.3982.3197.1637.0609.3427.0672.5103.018s.3149-.1512.4197-.2909c.1049-.1397.1618-.3095.1622-.4842v-12.3552c0-.2628.1044-.5149.2903-.7007.1858-.1858.4378-.2902.7006-.2902s.5149.1044.7007.2902.2902.4379.2902.7007v9.8334c0 .2148.0854.4208.2373.5727s.3579.2373.5727.2373c.2149 0 .4209-.0854.5728-.2373s.2372-.3579.2372-.5727v-3.8718c0-.2628.1044-.5149.2903-.7007.1858-.1858.4378-.2902.7006-.2902s.5149.1044.7007.2902.2902.4379.2902.7007v3.8718c0 .2148.0854.4208.2373.5727s.3579.2373.5727.2373c.2149 0 .4209-.0854.5728-.2373s.2372-.3579.2372-.5727v-2.9808c0-.2628.1044-.5149.2903-.7007.1858-.1858.4378-.2902.7006-.2902s.5149.1044.7007.2902.2902.4379.2902.7007v4.2066c0 .2148.0854.4208.2373.5727s.3579.2373.5727.2373c.2149 0 .4209-.0854.5728-.2373s.2372-.3579.2372-.5727v-.918s0 0 0-.0378v-1.0908c0-.2621.1041-.5135.2895-.6988.1853-.1853.4367-.2894.6987-.2894h.0918c.2621 0 .5135.1041.6988.2894s.2894.4367.2894.6988z" fill="#fff"/></svg>

<svg width="54" height="54" viewBox="0 0 54 54" fill="none" xmlns="http://www.w3.org/2000/svg">
<path d="M33.7662 21.7026H33.6744C33.3257 21.702 32.9804 21.7718 32.6592 21.9078C32.6228 21.4657 32.4733 21.0405 32.2251 20.6729C31.9769 20.3053 31.6383 20.0076 31.2419 19.8086C30.8455 19.6096 30.4046 19.5159 29.9615 19.5364C29.5185 19.557 29.0881 19.6911 28.7118 19.926C28.3952 19.383 27.8917 18.974 27.2954 18.7752C26.6992 18.5765 26.0509 18.6016 25.4718 18.846V15.2874C25.4718 14.5949 25.1968 13.9308 24.7071 13.4412C24.2175 12.9516 23.5534 12.6765 22.8609 12.6765C22.1685 12.6765 21.5044 12.9516 21.0148 13.4412C20.5251 13.9308 20.25 14.5949 20.25 15.2874V24.9048L20.1366 24.732L20.0826 24.6564C19.8633 24.3884 19.5919 24.1677 19.2848 24.0077C18.9776 23.8476 18.6413 23.7516 18.2959 23.7253C17.9506 23.6991 17.6036 23.7432 17.2758 23.855C16.9481 23.9667 16.6464 24.1438 16.389 24.3756C15.915 24.8057 15.6186 25.3973 15.5576 26.0344C15.4967 26.6716 15.6757 27.3086 16.0596 27.8208L21.8376 36.7902V40.5C21.8376 40.7148 21.923 40.9208 22.0749 41.0727C22.2268 41.2246 22.4328 41.31 22.6476 41.31H33.3612C33.5761 41.31 33.7821 41.2246 33.934 41.0727C34.0859 40.9208 34.1712 40.7148 34.1712 40.5V36.8118L36.2286 33.9174C36.3267 33.7803 36.3795 33.6161 36.3798 33.4476V24.3C36.3756 23.6096 36.0983 22.949 35.6086 22.4624C35.1189 21.9757 34.4566 21.7026 33.7662 21.7026ZM34.7544 33.1884L32.697 36.0828C32.599 36.2198 32.5461 36.3841 32.5458 36.5526V39.7008H23.4576V36.5526C23.4572 36.3974 23.4123 36.2456 23.328 36.1152L17.388 26.9352L17.3448 26.8758C17.1989 26.6874 17.1296 26.451 17.1506 26.2136C17.1716 25.9763 17.2815 25.7557 17.4582 25.596C17.5504 25.5136 17.6578 25.4501 17.7745 25.4093C17.8912 25.3685 18.0147 25.3511 18.1381 25.3581C18.2615 25.3652 18.3823 25.3965 18.4936 25.4503C18.6049 25.504 18.7045 25.5793 18.7866 25.6716L20.3904 28.08C20.4852 28.2267 20.6249 28.3389 20.7886 28.3997C20.9523 28.4606 21.1313 28.4669 21.2989 28.4177C21.4665 28.3685 21.6138 28.2665 21.7186 28.1268C21.8235 27.9871 21.8804 27.8173 21.8808 27.6426V15.2874C21.8808 15.0246 21.9852 14.7725 22.1711 14.5867C22.3569 14.4009 22.6089 14.2965 22.8717 14.2965C23.1345 14.2965 23.3866 14.4009 23.5724 14.5867C23.7582 14.7725 23.8626 15.0246 23.8626 15.2874V25.1208C23.8626 25.3356 23.948 25.5416 24.0999 25.6935C24.2518 25.8454 24.4578 25.9308 24.6726 25.9308C24.8875 25.9308 25.0935 25.8454 25.2454 25.6935C25.3973 25.5416 25.4826 25.3356 25.4826 25.1208V21.249C25.4826 20.9862 25.587 20.7341 25.7729 20.5483C25.9587 20.3625 26.2107 20.2581 26.4735 20.2581C26.7363 20.2581 26.9884 20.3625 27.1742 20.5483C27.36 20.7341 27.4644 20.9862 27.4644 21.249V25.1208C27.4644 25.3356 27.5498 25.5416 27.7017 25.6935C27.8536 25.8454 28.0596 25.9308 28.2744 25.9308C28.4893 25.9308 28.6953 25.8454 28.8472 25.6935C28.9991 25.5416 29.0844 25.3356 29.0844 25.1208V22.14C29.0844 21.8772 29.1888 21.6251 29.3747 21.4393C29.5605 21.2535 29.8125 21.1491 30.0753 21.1491C30.3381 21.1491 30.5902 21.2535 30.776 21.4393C30.9618 21.6251 31.0662 21.8772 31.0662 22.14V26.3466C31.0662 26.5614 31.1516 26.7674 31.3035 26.9193C31.4554 27.0712 31.6614 27.1566 31.8762 27.1566C32.0911 27.1566 32.2971 27.0712 32.449 26.9193C32.6009 26.7674 32.6862 26.5614 32.6862 26.3466V25.4286C32.6862 25.4286 32.6862 25.4286 32.6862 25.3908V24.3C32.6862 24.0379 32.7904 23.7865 32.9757 23.6012C33.161 23.4159 33.4124 23.3118 33.6744 23.3118H33.7662C34.0283 23.3118 34.2797 23.4159 34.465 23.6012C34.6503 23.7865 34.7544 24.0379 34.7544 24.3V33.1884Z" fill="black"/>
<path d="M34.7544 33.1884L32.697 36.0828C32.599 36.2198 32.5461 36.3841 32.5458 36.5526V39.7008H23.4576V36.5526C23.4572 36.3974 23.4123 36.2456 23.328 36.1152L17.388 26.9352L17.3448 26.8758C17.1989 26.6874 17.1296 26.451 17.1506 26.2136C17.1716 25.9763 17.2815 25.7557 17.4582 25.596C17.5504 25.5136 17.6578 25.4501 17.7745 25.4093C17.8912 25.3685 18.0147 25.3511 18.1381 25.3581C18.2615 25.3652 18.3823 25.3965 18.4936 25.4503C18.6049 25.504 18.7045 25.5793 18.7866 25.6716L20.3904 28.08C20.4852 28.2267 20.6249 28.3389 20.7886 28.3997C20.9523 28.4606 21.1313 28.4669 21.2989 28.4177C21.4665 28.3685 21.6138 28.2665 21.7186 28.1268C21.8235 27.9871 21.8804 27.8173 21.8808 27.6426V15.2874C21.8808 15.0246 21.9852 14.7725 22.1711 14.5867C22.3569 14.4009 22.6089 14.2965 22.8717 14.2965C23.1345 14.2965 23.3866 14.4009 23.5724 14.5867C23.7582 14.7725 23.8626 15.0246 23.8626 15.2874V25.1208C23.8626 25.3356 23.948 25.5416 24.0999 25.6935C24.2518 25.8454 24.4578 25.9308 24.6726 25.9308C24.8875 25.9308 25.0935 25.8454 25.2454 25.6935C25.3973 25.5416 25.4826 25.3356 25.4826 25.1208V21.249C25.4826 20.9862 25.587 20.7341 25.7729 20.5483C25.9587 20.3625 26.2107 20.2581 26.4735 20.2581C26.7363 20.2581 26.9884 20.3625 27.1742 20.5483C27.36 20.7341 27.4644 20.9862 27.4644 21.249V25.1208C27.4644 25.3356 27.5498 25.5416 27.7017 25.6935C27.8536 25.8454 28.0596 25.9308 28.2744 25.9308C28.4893 25.9308 28.6953 25.8454 28.8472 25.6935C28.9991 25.5416 29.0844 25.3356 29.0844 25.1208V22.14C29.0844 21.8772 29.1888 21.6251 29.3747 21.4393C29.5605 21.2535 29.8125 21.1491 30.0753 21.1491C30.3381 21.1491 30.5902 21.2535 30.776 21.4393C30.9618 21.6251 31.0662 21.8772 31.0662 22.14V26.3466C31.0662 26.5614 31.1516 26.7674 31.3035 26.9193C31.4554 27.0712 31.6614 27.1566 31.8762 27.1566C32.0911 27.1566 32.2971 27.0712 32.449 26.9193C32.6009 26.7674 32.6862 26.5614 32.6862 26.3466V25.4286C32.6862 25.4286 32.6862 25.4286 32.6862 25.3908V24.3C32.6862 24.0379 32.7903 23.7865 32.9757 23.6012C33.161 23.4159 33.4124 23.3118 33.6744 23.3118H33.7662C34.0283 23.3118 34.2797 23.4159 34.465 23.6012C34.6503 23.7865 34.7544 24.0379 34.7544 24.3V33.1884Z" fill="white"/>
</svg>
